packages/ui-icons/svg/Solid/trash.svg

<svg viewBox="0 0 1920 1920" version="1.1" xmlns="http://www.w3.org/2000/svg">
    <path d="M1694.06317,564.68396 L1694.06317,1750.49656 C1694.06317,1843.89342 1618.05823,1919.89836 1524.66137,1919.89836 L1524.66137,1919.89836 L395.31604,1919.89836 C301.919181,1919.89836 225.91424,1843.89342 225.91424,1750.49656 L225.91424,1750.49656 L225.91424,564.68396 L1694.06317,564.68396 Z M1217.09546,0 L1340.53291,338.8036 L1920,338.8036 L1920,451.851068 L0,451.851068 L0,338.8036 L571.222869,338.8036 L694.660314,0 L1217.09546,0 Z M677.652373,1581.09476 L790.586907,1581.09476 L790.586907,903.48756 L677.652373,903.48756 L677.652373,1581.09476 Z M1129.39051,1581.09476 L1242.32504,1581.09476 L1242.32504,903.48756 L1129.39051,903.48756 L1129.39051,1581.09476 Z" stroke="none" stroke-width="1" fill-rule="evenodd"/>
</svg>

<svg viewBox="0 0 1920 1920" version="1.1" xmlns="http://www.w3.org/2000/svg">
    <path d="M694.66 0h522.435l123.438 338.804H1920V451.85H0V338.804h571.223L694.66 0zM225.914 1750.497V564.684h1468.15v1185.813c0 93.396-76.006 169.401-169.403 169.401H395.316c-93.397 0-169.402-76.005-169.402-169.401zm451.738-169.402h112.935V903.488H677.652v677.607zm451.739 0h112.934V903.488h-112.934v677.607z" stroke="none" stroke-width="1" fill-rule="evenodd"/>
</svg>
